core/assets/icons/office.svg

<svg width="24" height="24" viewBox="0 0 24 24" xmlns="http://www.w3.org/2000/svg"><g id="office"><path id="Vector" fill-rule="evenodd" clip-rule="evenodd" d="M9.67358 1H13.3264C14.7778 1 16.021 2.03906 16.2788 3.4668L17.4583 10H19C19.5522 10 20 10.4473 20 11V12H17.8193L17.9521 12.7354C17.9697 12.832 17.9824 12.9297 17.9902 13.0283L17.9978 13.1543L18 13.2686V16C18 17.1045 17.1045 18 16 18H12.5V20H15C16.6567 20 18 21.3428 18 23H16C16 22.4473 15.5522 22 15 22H12.5V23H10.5V22H8C7.44775 22 7 22.4473 7 23H5C5 21.3428 6.34326 20 8 20H10.5V18H7C5.89551 18 5 17.1045 5 16V13.2686C5 13.0898 5.01587 12.9111 5.04785 12.7354L5.18066 12H3V11C3 10.4473 3.44775 10 4 10H5.54175L6.72119 3.4668C6.979 2.03906 8.22217 1 9.67358 1ZM13.3264 3H9.67358C9.1897 3 8.77539 3.34668 8.68945 3.82227L7.21289 12H15.7871L14.3105 3.82227C14.2246 3.34668 13.8103 3 13.3264 3ZM16 14H7V16H16V14Z"/></g></svg>

<svg xmlns="http://www.w3.org/2000/svg" width="24" height="24" fill="none"><path fill="#191C22" fill-rule="evenodd" d="M9.674 1h3.652a3 3 0 0 1 2.953 2.467L17.459 10H19a1 1 0 0 1 1 1v1h-2.18l.132.735c.018.097.03.195.038.293l.008.126.002.115V16a2 2 0 0 1-2 2h-3.5v2H15a3 3 0 0 1 3 3h-2a1 1 0 0 0-1-1h-2.5v1h-2v-1H8a1 1 0 0 0-1 1H5a3 3 0 0 1 3-3h2.5v-2H7a2 2 0 0 1-2-2v-2.731c0-.18.016-.358.048-.534L5.18 12H3v-1a1 1 0 0 1 1-1h1.542l1.18-6.533A3 3 0 0 1 9.673 1Zm3.652 2H9.674a1 1 0 0 0-.985.822L7.213 12h8.574L14.31 3.822A1 1 0 0 0 13.326 3ZM16 14H7v2h9v-2Z" clip-rule="evenodd"/></svg>
